X:349
T:Reel 349
M:4/4
K:Emin
L:1/8
GABA GEEG|FGAG FDD2|GBBA GFEG|B,A,B,^D E2E2|GABA GEEG|FGAG FDD2|GFGE F2ED|B,A,B,^D E2E2|GAB^c d2cd|edBA GEE2|GAB^c d2cd|edB^d e2e2|GAB^c d2cd|edBA GEE2|GABA GEED|B,A,B,^D E2E2|
